svgs/thin/vector-polygon.svg

<svg xmlns="http://www.w3.org/2000/svg" viewBox="0 0 448 512"><!--! Font Awesome Pro 6.6.0 by @fontawesome - https://fontawesome.com License - https://fontawesome.com/license (Commercial License) Copyright 2024 Fonticons, Inc. --><path d="M416 48c8.8 0 16 7.2 16 16l0 32c0 8.8-7.2 16-16 16l-32 0c-8.8 0-16-7.2-16-16l0-32c0-8.8 7.2-16 16-16l32 0zM384 32c-17.7 0-32 14.3-32 32l0 8L96 72l0-8c0-17.7-14.3-32-32-32L32 32C14.3 32 0 46.3 0 64L0 96c0 17.7 14.3 32 32 32l8 0 0 256-8 0c-17.7 0-32 14.3-32 32l0 32c0 17.7 14.3 32 32 32l32 0c17.7 0 32-14.3 32-32l0-8 256 0 0 8c0 17.7 14.3 32 32 32l32 0c17.7 0 32-14.3 32-32l0-32c0-17.7-14.3-32-32-32l-32 0c-3.2 0-6.2 .5-9.1 1.3l-52.3-87.2c8.1-5.8 13.4-15.3 13.4-26.1l0-32c0-10.8-5.3-20.3-13.4-26.1l52.3-87.2c2.9 .9 5.9 1.3 9.1 1.3l32 0c17.7 0 32-14.3 32-32l0-32c0-17.7-14.3-32-32-32l-32 0zM307.4 303.8l53.8 89.7c-5.7 5.8-9.2 13.7-9.2 22.5l0 8L96 424l0-8c0-17.7-14.3-32-32-32l-8 0 0-256 8 0c17.7 0 32-14.3 32-32l0-8 256 0 0 8c0 8.7 3.5 16.7 9.2 22.5l-53.8 89.7c-1.1-.1-2.2-.2-3.4-.2l-32 0c-17.7 0-32 14.3-32 32l0 32c0 17.7 14.3 32 32 32l32 0c1.1 0 2.3-.1 3.4-.2zM32 400l32 0c8.8 0 16 7.2 16 16l0 32c0 8.8-7.2 16-16 16l-32 0c-8.8 0-16-7.2-16-16l0-32c0-8.8 7.2-16 16-16zm352 0l32 0c8.8 0 16 7.2 16 16l0 32c0 8.8-7.2 16-16 16l-32 0c-8.8 0-16-7.2-16-16l0-32c0-8.8 7.2-16 16-16zM32 48l32 0c8.8 0 16 7.2 16 16l0 32c0 8.8-7.2 16-16 16l-32 0c-8.8 0-16-7.2-16-16l0-32c0-8.8 7.2-16 16-16zM304 224c8.8 0 16 7.2 16 16l0 32c0 8.8-7.2 16-16 16l-32 0c-8.8 0-16-7.2-16-16l0-32c0-8.8 7.2-16 16-16l32 0z"/></svg>

<svg xmlns="http://www.w3.org/2000/svg" viewBox="0 0 448 512"><!--! Font Awesome Pro 6.4.0 by @fontawesome - https://fontawesome.com License - https://fontawesome.com/license (Commercial License) Copyright 2023 Fonticons, Inc. --><path d="M416 48c8.8 0 16 7.2 16 16V96c0 8.8-7.2 16-16 16H384c-8.8 0-16-7.2-16-16V64c0-8.8 7.2-16 16-16h32zM384 32c-17.7 0-32 14.3-32 32v8H96V64c0-17.7-14.3-32-32-32H32C14.3 32 0 46.3 0 64V96c0 17.7 14.3 32 32 32h8l0 256H32c-17.7 0-32 14.3-32 32v32c0 17.7 14.3 32 32 32H64c17.7 0 32-14.3 32-32v-8H352v8c0 17.7 14.3 32 32 32h32c17.7 0 32-14.3 32-32V416c0-17.7-14.3-32-32-32H384c-3.2 0-6.2 .5-9.1 1.3l-52.3-87.2c8.1-5.8 13.4-15.3 13.4-26.1V240c0-10.8-5.3-20.3-13.4-26.1l52.3-87.2c2.9 .9 5.9 1.3 9.1 1.3h32c17.7 0 32-14.3 32-32V64c0-17.7-14.3-32-32-32H384zM307.4 303.8l53.8 89.7c-5.7 5.8-9.2 13.7-9.2 22.5v8H96v-8c0-17.7-14.3-32-32-32H56l0-256h8c17.7 0 32-14.3 32-32V88H352v8c0 8.7 3.5 16.7 9.2 22.5l-53.8 89.7c-1.1-.1-2.2-.2-3.4-.2H272c-17.7 0-32 14.3-32 32v32c0 17.7 14.3 32 32 32h32c1.1 0 2.3-.1 3.4-.2zM32 400H64c8.8 0 16 7.2 16 16v32c0 8.8-7.2 16-16 16H32c-8.8 0-16-7.2-16-16V416c0-8.8 7.2-16 16-16zm352 0h32c8.8 0 16 7.2 16 16v32c0 8.8-7.2 16-16 16H384c-8.8 0-16-7.2-16-16V416c0-8.8 7.2-16 16-16zM32 48H64c8.8 0 16 7.2 16 16V96c0 8.8-7.2 16-16 16H32c-8.8 0-16-7.2-16-16V64c0-8.8 7.2-16 16-16zM304 224c8.8 0 16 7.2 16 16v32c0 8.8-7.2 16-16 16H272c-8.8 0-16-7.2-16-16V240c0-8.8 7.2-16 16-16h32z"/></svg>
